!!!!SEGMENT: pl-kk--kk-i-636--001-010_anonim--in-corona-domini-responsorium-7mum.krn
!!!cenid: 18xx:4532
!!!COM: Anonim
!!!COM-rismID: pe30004985
!!!CDT:
!!!CNT:
!!!OPR: In Corona Domini
!!!OTL: Responsorium 7mum
!!!OMV: 010
!!!PDT:
!!!AGN: Sacred
!!!YEC: Copyright 2022 Narodowy Instytut Fryderyka Chopina (https://polishscores.org)
!!!YEM: License CC-BY-4.0 (https://creativecommons.org/licenses/by/4.0)
!!!SMS-siglum: PL-Kk
!!!SMS-shelfmark: Kk.I.636
!!!SMS-variant:
!!!SMS-altvar:
!!!SMS-shelfwork: 001-010 M
!!!NIFC-rismSourceID: 1001216440
!!!NIFC-rismChildID: 1001216912
!!!NIFC-islandoraID: pl-kk:40786
!!!URL-pdf-islandora: https://repozytorium.nifc.pl/islandora/object/pl-kk%3A40786/datastream/PDF/view
!!!URL-scan: https://polish.musicsources.pl/pl/lokalizacje/galeria/rekopisy/7271/1 @EN{Scan on Polish Music Sources Website} @PL{Skany w portalu Dziedzictwo Muzyki Polskiej w otwartym dostępie}
!!!IIIF:
!!!ONB-nifc: UWAGA: Lamentacje i Responsoria In Corona Domini na skanach: S – 1-7, A – 24-30, T – 45-52, B – 70-78. Każda Lamentacja i Responsorium to oddzielne pliki.
!!!AIN: 1 alto 1 bass 1 soprn 1 tenor
!!!key: g
**kern	**text	**kern	**text	**kern	**text	**kern	**text
*part4	*part4	*part3	*part3	*part2	*part2	*part1	*part1
*staff4	*staff4	*staff3	*staff3	*staff2	*staff2	*staff1	*staff1
*ICvox	*	*ICvox	*	*ICvox	*	*ICvox	*
*Ibass	*	*Itenor	*	*Ialto	*	*Isoprn	*
*I"Basso.	*	*I"Tenore.	*	*I"Alto.	*	*I"Soprano.	*
*I'B	*	*I'T	*	*I'A	*	*I'S	*
*clefF4	*	*clefC4	*	*clefC3	*	*clefC1	*
*k[b-e-]	*	*k[b-e-]	*	*k[b-e-]	*	*k[b-e-]	*
*g:	*	*g:	*	*g:	*	*g:	*
*M4/4	*	*M4/4	*	*M4/4	*	*M4/4	*
*met(c)	*	*met(c)	*	*met(c)	*	*met(c)	*
*all\right	*	*all\right	*	*all\right	*	*all\right	*
=1	=1	=1	=1	=1	=1	=1	=1
*2\right	*	*2\right	*	*2\right	*	*2\right	*
!!LO:TX:t=P:problem:all\right
2r;	.	2r;	.	2r;	.	2r;	.
4D\	E-	4A\	E-	4f#X\	E-	4dd\	E-
4D\	-ram	4A\	-ram	4f#\	-ram	4dd\	-ram
!LO:LB:g=original	!	!	!	!	!	!LO:LB:g=original	!
=2	=2	=2	=2	=2	=2	=2	=2
8E-\	qua-	8G/	qua-	8g\	qua-	8b-\	qua-
8E-\	-si	8G/	-si	8g\	-si	8b-\	-si
8E-\	ag-	8G/	ag-	8g\	ag-	8b-\	ag-
8E-\	-nus	8G/	-nus	8g\	-nus	8b-\	-nus
!	!	!	!	!LO:LB:g=original	!	!	!
4C/	in-	4G/	in-	4e-\	in-	4cc\	in-
4C/	-no-	4G/	-no-	4e-\	-no-	4cc\	-no-
!	!	!LO:LB:g=original	!	!	!	!	!
=3	=3	=3	=3	=3	=3	=3	=3
2D;\	-cens,	2F#X;/	-cens,	2d;\	-cens.	2a;\	-cens,
4GG/	duc-	4D/	duc-	4B-/	duc-	4b-\	duc-
8GG/	-tus	8D/	-tus	8B-/	-tus	8b-\	-tus
8GG/	ad	8D/	ad	8B-/	ad	8b-\	ad
=4	=4	=4	=4	=4	=4	=4	=4
4C/	im-	4E-/	im-	4c\	im-	4g\	im-
4C/	-mo-	4E-/	-mo-	4c\	-mo-	4g\	-mo-
2AA/	-lan-	2E-/	-lan-	2c\	-lan-	2a\	-lan-
!LO:LB:g=original	!	!	!	!	!	!LO:PB:g=original	!
=5	=5	=5	=5	=5	=5	=5	=5
2D;\	-dum,	2D;/	-dum,	2d;\	-dum,	2f#X;/	-dum.
4D\	con-	4A\	con-	4f#X\	con-	4dd\	Con-
8D\	-si-	8A\	-si-	8f#\	-si-	8dd\	-si-
8D\	-li-	8A\	-li-	8f#\	-li-	8dd\	-li-
!	!	!	!	!LO:LB:g=original	!	!	!
=6	=6	=6	=6	=6	=6	=6	=6
4G\	-um	4B-\	-um	4g\	-um	4dd\	-um
4G\	fe-	4B-\	fe-	4g\	fe-	4dd\	fe-
4D\	-ce-	4B-\	-ce-	4a-X\	-ce-	4ffn\	-ce-
4D\	-runt	4B-\	-runt	4a-\	-runt	4ff\	-runt
!	!	!LO:LB:g=original	!	!	!	!	!
=7	=7	=7	=7	=7	=7	=7	=7
4E-\	om-	4B-\	om-	4g\	om-	4ee-\	om-
4E-\	-nes	4B-\	-nes	4g\	-nes	4ee-\	-nes
8BB-/	i-	8B-\	i-	8fn\	i-	8dd\	i-
8BB-/	-ni-	8B-\	-ni-	8f\	-ni-	8dd\	-ni-
8BB-/	-mi-	8B-\	-mi-	8f\	-mi-	8dd\	-mi-
8BB-/	-ci	8B-\	-ci	8f\	-ci	8dd\	-ci
!LO:LB:g=original	!	!	!	!	!	!LO:LB:g=original	!
=8	=8	=8	=8	=8	=8	=8	=8
4FF/	me-	4B-\	me-	4f\	me-	4cc\	me-
8FF/	-i	8B-\	-i	8f\	-i	8cc\	-i
8FF/	di-	8B-\	di-	8f\	di-	8cc\	di-
2FF/	-cen-	2A\	-cen-	4f\	-cen-	2cc\	-cen-
.	.	.	.	4e-\	.	.	.
!	!	!	!	!LO:LB:g=original	!	!	!
=9	=9	=9	=9	=9	=9	=9	=9
1BB-;	-tes:	1F;	-tes.	1d;	-tes,	1b-;	-tes,
=10||	=10||	=10	=10	=10	=10	=10	=10
4D\	I-	4F#X/	I-	4d\	i-	4a\	I-
4D\	-ni-	4F#/	-ni-	4d\	-ni-	4a\	-ni-
4D\	-mi-	4G/	-mi-	4d\	-mi-	4b-\	-mi-
4D\	-ci	4G/	-ci	4d\	-ci	4b-\	-ci
!	!	!LO:LB:g=original	!	!	!	!	!
=11	=11	=11	=11	=11	=11	=11	=11
4C/	me-	4G/	me-	4e-\	me-	4cc\	me-
4C/	-i	4G/	-i	4e-\	-i	4cc\	-i
2BBn/	ad-	2A-X/	ad-	2fn\	ad-	2dd\	ad-
!LO:LB:g=original	!	!	!	!	!	!LO:LB:g=original	!
=12	=12	=12	=12	=12	=12	=12	=12
4C/	-ver-	4G/	-ver-	4e-\	-ver-	4cc\	-ver-
4C/	-sum	4G/	-sum	4e-\	-sum	4cc\	-sum
4C#X/	me	4G/	me	4en\	me	4b-X\	me
4C#/	di-	4G/	di-	4e\	di-	4b-\	di-
!	!	!	!	!LO:LB:g=original	!	!	!
=13	=13	=13	=13	=13	=13	=13	=13
4D\	-cen-	4F#X/	-cen-	4d\	-cen-	4a\	-cen-
!LO:N:vis=2	!	!	!	!	!	!	!
2.D;\	-tes.	2.F#;/	-tes,	2.d;\	-tes	2.a;\	-tes,
!LO:TX:b:rj:t=Volti Subitto&colon;	!	!	!	!	!	!	!
!LO:PB:g=original	!	!	!	!	!	!	!
=14||	=14||	=14||	=14||	=14	=14	=14	=14
2BB-/	ad-	2G/	ad-	2d\	ad-	2g\	ad-
2AA/	-ver-	2F#X/	-ver-	2d\	-ver-	2a\	-ver-
=15	=15	=15	=15	=15	=15	=15	=15
2GG/	-sum	2G/	-sum	2d\	-sum	2b-\	-sum
2C/	di-	2G/	di-	2e-\	di-	2cc\	di-
!	!	!LO:LB:g=original	!	!	!	!	!
=16	=16	=16	=16	=16	=16	=16	=16
1D	-cen-	2G/	-cen-	2.d\	-cen-	1a	-cen-
.	.	2F#X/	.	.	.	.	.
.	.	.	.	4c\	.	.	.
!	!	!	!	!	!	!LO:LB:g=original	!
=17	=17	=17	=17	=17	=17	=17	=17
4GG/	-tes,	4G/	-tes,	4B-/	-tes,	4g\	-tes,
4d\	ve-	4d\	ve-	4dd\	ve-	4dd\	ve-
4B-\	-ni-	4B-\	-ni-	4b-\	-ni-	4b-\	-ni-
4G\	-te	4G\	-te,	4g\	-te	4g\	-te.
!LO:LB:g=original	!	!	!	!LO:PB:g=original	!	!	!
=18	=18	=18	=18	=18	=18	=18	=18
4.e-\	ve-	4.e-\	ve-	4.ee-\	ve-	4.ee-\	ve-
8d\	.	8d\	.	8dd\	.	8dd\	.
8c\L	.	8c\L	.	8cc\L	.	8cc\L	.
8B-\J	.	8B-\J	.	8b-\J	.	8b-\J	.
8A\L	.	8A/L	.	8a\L	.	8a\L	.
8G\J	.	8G/J	.	8g\J	.	8g\J	.
=19	=19	=19	=19	=19	=19	=19	=19
4F#X\	-ni-	4F#X/	-ni-	4f#X\	-ni-	4f#X/	ni-
4F#\	-te	4F#/	-te,	4f#\	-te	4f#/	-te
4r	.	4r	.	4r	.	4r	.
4D\	ve-	4D/	ve-	4d\	ve-	4d/	ve-
!	!	!LO:LB:g=original	!	!	!	!	!
=20	=20	=20	=20	=20	=20	=20	=20
4.G\	-ni-	4.G/	-ni-	4.g\	-ni-	4.g\	-ni-
8A\	.	8A/	.	8a\	.	8a\	.
4B-\	-te	4B-\	-te	4b-\	-te	4b-\	-te
4c#X\	ve-	4c#X\	ve-	4cc#X\	ve-	4cc#X\	ve-
!	!	!	!	!	!	!LO:LB:g=original	!
=21	=21	=21	=21	=21	=21	=21	=21
4d\	ni-	4d\	-ni-	4dd\	-ni-	4dd\	-ni-
4D\	-te	4D/	-te	4d\	-te,	4d/	-te.
2r	.	4r	.	4r	.	4r	.
.	.	4d\	mit-	4a\	mit-	4dd\	mit-
!LO:LB:g=original	!	!	!	!LO:LB:g=original	!	!	!
=22	=22	=22	=22	=22	=22	=22	=22
2r	.	2e-X\	-ta-	2g\	-ta-	2cc#X\	-ta-
4r	.	4A\	-mus,	4f#X\	-mus	4dd\	-mus,
4d\	mit-	4A\	mit-	4f#\	mit-	4dd\	mit-
!	!	!LO:TX:b:rj:t=V.S.	!	!	!	!	!
!	!	!LO:PB:g=original	!	!	!	!	!
=23	=23	=23	=23	=23	=23	=23	=23
4.c#X\	-ta-	4.en\	-ta-	4.g\	-ta-	4.gg\	-ta-
8c#\	-mus	8e\	-mus	8b-\	-mus	8gg\	-mus,
8d\	lig-	4d\	lig-	4a\	lig-	4ff#X\	lig-
8d\	-num	.	.	.	.	.	.
4r	.	4d\	-num	4a\	-num	4dd\	-num
=24	=24	=24	=24	=24	=24	=24	=24
2r	.	2e-X\	in	2a\	in	2cc#X\	in
4r	.	4A\	pa-	4f#X\	pa-	4dd\	pa-
4d\	e-	4A\	-nem	4f#\	-nem	4dd\	-nem
!	!	!	!	!	!	!LO:LB:g=original	!
=25	=25	=25	=25	=25	=25	=25	=25
2c#X\	.	2en\	e-	2b-\	e-	2gg\	e-
4d\	-jus,	4d\	-jus,	4a\	-jus,	4ff#X\	-jus,
4r	.	4d\	mit-	4a\	mit-	4dd\	mit-
!LO:LB:g=original	!	!	!	!LO:LB:g=original	!	!	!
=26	=26	=26	=26	=26	=26	=26	=26
2r	.	4.F#X/	-ta-	4.a\	-ta-	8ee-\L	-ta-
.	.	.	.	.	.	8cc\J	.
.	.	.	.	.	.	8cc\L	.
.	.	8F#/	.	8a\	.	8a\J	.
4r	.	4F#/	-mus	4a\	-mus,	8a\L	-mus,
.	.	.	.	.	.	8cc\J	.
4Cn/	mit-	4F#/	mit-	4a\	mit-	8cc\L	mit-
.	.	.	.	.	.	8ee-\J	.
=27	=27	=27	=27	=27	=27	=27	=27
8BB-/L	-ta-	2G/	-ta-	2b-\	-ta-	4.dd\	-ta-
8D/J	.	.	.	.	.	.	.
8D\L	.	.	.	.	.	.	.
8G\J	.	.	.	.	.	8b-\	.
8G\L	-mus	4G/	-mus	4b-\	-mus	4g\	-mus
8B-\J	.	.	.	.	.	.	.
8B-\L	in	4G/	in	4b-\	in	4dd\	in
8G\J	.	.	.	.	.	.	.
!	!	!LO:LB:g=original	!	!	!	!	!
=28	=28	=28	=28	=28	=28	=28	=28
8F#X\L	pa-	8A\L	pa-	8cc\L	pa-	8ee-\L	pa-
8G\	.	8B-\J	.	8b-\J	.	8dd\J	.
8A\	.	8c\L	.	8a\L	.	8cc\L	.
8B-\J	.	8d\J	.	8g\J	.	8b-\J	.
4c\	-nem,	4e-\	-nem	4f#X\	-nem	4a\	-nem
4c\	in	4e-\	in	4f#\	in	4a\	in
!LO:LB:g=original	!	!	!	!	!	!LO:LB:g=original	!
=29	=29	=29	=29	=29	=29	=29	=29
8B-\L	pa-	8d\L	pa-	8g\L	pa-	8dd\L	pa-
8F#X\J	.	8A\	.	8a\	.	8cc\J	.
8G\L	.	8B-\	.	8g\	.	8b-\L	.
8A\J	.	8c\J	.	8f#X\J	.	8a\J	.
4B-\	-nem,	4d\	-nem	4g\	-nem,	4g\	-nem
4G\	mit-	4d\	mit-	4g\	mil-	4b-\	mil-
!	!	!	!	!LO:LB:g=original	!	!	!
=30	=30	=30	=30	=30	=30	=30	=30
2C/	-ta-	2e-\	-ta-	2a-X\	-ta-	2a-X\	-ta-
4C/	-mus	4e-\	-mus	4a-\	-mus	4cc\	-mus
4C/	in	4c\	in	4a-\	in	4ee-\	in
=31	=31	=31	=31	=31	=31	=31	=31
2D\	pa-	1B-	pa-	2b-\	pa-	2dd\	pa-
2E-\	.	.	.	2g\	.	2b-\	.
=32	=32	=32	=32	=32	=32	=32	=32
2C/	.	2e-\	.	2g\	.	1an	.
2D/	.	4d\	.	2f#X\	.	.	.
.	.	4c\	.	.	.	.	.
!LO:LB:g=original	!	!	!	!	!	!	!
=33	=33	=33	=33	=33	=33	=33	=33
2GG/	-nem,	2B-\	-nem,	2g\	-nem,	2g\	-nem,
4r	.	2r	.	2r	.	2r	.
8d\	e-	.	.	.	.	.	.
8d\	-ra-	.	.	.	.	.	.
!	!	!LO:LB:g=original	!	!	!	!LO:LB:g=original	!
=34	=34	=34	=34	=34	=34	=34	=34
4.d\	-da-	2r	.	2r	.	2r	.
8D\	-mus	.	.	.	.	.	.
8D\	e-	4r	.	4r	.	4r	.
8D\	-um	.	.	.	.	.	.
4r	.	8d\	e-	8a\	e-	8dd\	e-
.	.	8d\	-ra-	8a\	-ra-	8dd\	-ra-
!	!	!	!	!LO:LB:g=original	!	!	!
=35	=35	=35	=35	=35	=35	=35	=35
2r	.	4.en\	-da-	4.b-\	-da-	4.cc#X\	-da-
.	.	8e\	-mus	8b-\	-mus	8cc#\	-mus
4r	.	8f#X\	e-	8a\	e-	4dd\	eum,
.	.	8f#\	-um	8a\	-um	.	.
8d\	e-	4r	.	4r	.	4r	.
8d\	-ra-	.	.	.	.	.	.
!LO:LB:g=original	!	!	!	!	!	!	!
=36	=36	=36	=36	=36	=36	=36	=36
4.d\	-da-	2r	.	2r	.	4r	.
.	.	.	.	.	.	4r	.
8D\	-mus	.	.	.	.	.	.
8D\	e-	4r	.	4r	.	4r	.
8D\	-um	.	.	.	.	.	.
4r	.	8d\	e-	8a\	e-	8ff#X\	e-
.	.	8d\	-ra-	8a\	-ra-	8ff#\	-ra-
!	!	!	!	!	!	!LO:LB:g=original	!
=37	=37	=37	=37	=37	=37	=37	=37
2r	.	4.en\	-da-	4.cc#X\	-da-	4.gg\	-da-
.	.	8e\	-mus	8cc#\	-mus	8gg\	-mus
4r	.	4d\	e-	4dd\	e-	4ff\	e-
4D\	de	8A\	-um	8f#X\	-um	8dd\	-um
.	.	8A\	de	8f#\	de	8dd\	de
!	!	!LO:LB:g=original	!	!LO:LB:g=original	!	!	!
=38	=38	=38	=38	=38	=38	=38	=38
4Cn/	ter-	4c\	ter-	4g\	ter-	(4ee-\	ter-
4D/	.	4A\	.	4f#X\	.	4dd\)	.
4C/	-ra	4c\	-ra	4g\	-ra	4ee-\	-ra
4D/	vi-	4A\	vi-	4f#\	vi-	4dd\	vi-
=39	=39	=39	=39	=39	=39	=39	=39
4C/	-ven-	8c\	-ven-	8g\	-ven-	8ee-\	-ven-
.	.	8c\	-ti-	8g\	-ti-	8ee-\	-ti-
4D/	-tium,	4A\	-um,	4f#X\	-um,	4dd\	-um,
2r	.	2r	.	2r	.	2r	.
!LO:LB:g=original	!	!	!	!	!	!LO:LB:g=original	!
=40	=40	=40	=40	=40	=40	=40	=40
4D\	om-	4d\	om-	4f#X\	om-	4a\	om-
4D\	-nes	4d\	-nes	4f#\	-nes	4a\	-nes
4G\	i-	4d\	i-	4g\	i-	4b-\	i-
4G\	-ni-	4d\	-ni-	4g\	-ni-	4b-\	-ni-
=41	=41	=41	=41	=41	=41	=41	=41
2F\	-mi-	2fn\	-mi-	2a\	-mi-	2cc\	-mi-
2B-\	-ci	2f\	-ci	2b-\	-ci	2dd\	-ci
!	!	!	!	!LO:LB:g=original	!	!	!
=42	=42	=42	=42	=42	=42	=42	=42
2F\	me-	2e-\	me-	2a\	me-	2cc\	me-
2G\	-i	2d\	-i	2g\	-i	2b-\	-i
!	!	!LO:LB:g=original	!	!	!	!	!
=43	=43	=43	=43	=43	=43	=43	=43
4D\	ad-	4d\	ad-	4f#X\	ad-	4a\	ad-
4D\	-ver-	4d\	-ver-	4f#\	-ver-	4a\	-ver-
4D\	-sum	4d\	-sum	4f#\	-sum	4a\	-sum
4D\	me	4d\	me	4f#\	me	4a\	me
!LO:LB:g=original	!	!	!	!	!	!LO:LB:g=original	!
=44	=44	=44	=44	=44	=44	=44	=44
2BB-/	co-	2d\	co-	2g\	co-	2g\	co-
2D/	-gi-	2d\	-gi-	2f#X\	-gi-	2a\	-gi-
=45	=45	=45	=45	=45	=45	=45	=45
2G\	-ta-	2d\	-ta-	2g\	-ta-	2b-\	-ta-
2C/	-bant	2e-\	-bant	2g\	-bant	2cc\	-bant
!	!	!	!	!LO:LB:g=original	!	!	!
=46	=46	=46	=46	=46	=46	=46	=46
4D\	ma-	4d\	ma-	4g\	ma-	4a\	ma-
4D\	-la	4d\	-la	4g\	-la	4a\	-la
2D\	mi-	2d\	mi-	2f#X\	mi-	2a\	mi-
=47	=47	=47	=47	=47	=47	=47	=47
4GG/	-hi.	4B-\	-hi.	4g\	-hi.	4g\	-hi.
4r	.	4r	.	4r	.	4r	.
2r	.	2r	.	2r	.	2r	.
!	!	!	!	!	!	!LO:TX:b:rj:t=Seq Responsorium 8vum.	!
==	==	==	==	==	==	==	==
*-	*-	*-	*-	*-	*-	*-	*-
!!!system-decoration: [(s1,s2,s3,s4)]
!!!RDF**kern: > = above
!!!RDF**kern: < = below
!!!RDF**kern: i = editorial accidental
!!!ENC: Filip Voros
!!!EED: Katarzyna Serwa
!!!END: 2023-11-15
!!!EEV: 2024-06-04
